X:1
T:Title
%%score { ( 1 4 ) | ( 2 3 ) }
L:1/8
M:6/8
K:Eb
V:1 treble nm="Grand Piano"
V:4 treble 
V:2 bass 
V:3 bass 
V:1
 z3 z2[Q:1/4=90] [EG] | [EG][Ac][GB] [GB]GG | BAA A2 [FA] | [EG][Ge]B AG[DF] |[M:5/8] E-E- E3 | %5
[M:1/8] G |[M:3/4] G[Ac] [GB][GB] GG | BA A A2 [FA] | [EG][Ge] BA G[DF] |[M:5/8] E-E- E3 | %10
[M:1/8] E |[M:3/4] [CE][CA] [CA][CA] [EB][Ac] | [Ac][GB] [GB] [GB]2 [B,GB] | %13
 [B,GB][B,FA] [B,FA][B,FA] [B,EG][B,GB] |[M:5/8] [DF]-[DF]- [DF]3 |[M:1/8] [EG] | %16
[M:3/4] [EG][Ac] [GB][GB] GG | BA A A2 [FA] | [EG][Ge] [B,EB][FA] [EG][A,DF] | %19
[M:5/8] [G,E]-[G,E]- [G,E]3 |[M:3/4] [B,GB][B,GB] [Ge] [Ad]3 | [DAc][DAd] [DAc] [EGB]3 | %22
 [EG][EG] [GB][GB] [EG][FA] | [DF]2 F F3 | [EG][Ac] [GB] [GB]2 G | BA .A2 z F | G[Ge] BA G[DF] | %27
[M:5/8] E-E- E3 |] %28
V:2
 z3 z2 E, | E,E,E, E,[E,E][E,B,E] | [F,B,D][F,B,D][F,B,D] [F,B,D]2 [D,B,] | %3
 [E,B,][E,B,][K:treble][G,B,E] [B,F][K:bass][B,E][B,,A,] |[M:5/8] [E,G,]-[E,G,]- [E,G,]3 | %5
[M:1/8] [E,E] |[M:3/4] [E,E]E, E,E, [E,E][E,B,E] | [F,B,D][F,B,D] [F,B,D] [F,B,D]2 [D,B,] | %8
 [E,B,][E,B,][K:treble] [G,B,E][B,F][K:bass] [B,E][B,,A,] |[M:5/8] [E,G,]-[E,G,]- [E,G,]3 | %10
[M:1/8] [E,G,] |[M:3/4] [A,,A,][A,,A,] [A,,A,][A,,A,] [A,,A,][A,,A,] | E,E, E, E,2 E, | %13
 D,D, D,E, E,E, |[M:5/8] B,-B,- B,3 |[M:1/8] E, |[M:3/4] E,E, E,E, [E,E][E,B,E] | %17
 [F,B,D][F,B,D] [F,B,D] [F,B,D]2 [D,B,] | [E,B,][E,B,] G,B, B,B,, |[M:5/8] E,-E,- E,3 | %20
[M:3/4] E,E, [E,B,] [F,B,]3 | B,,B,, B,, E,3 | E,E, E,E, E,E, | z2 D D3 | E,E, .E,2 z [B,E] | %25
 z2 z .[F,D]3 | [E,B,E][E,B,][K:treble] [G,B,E][B,F][K:bass] [B,E][B,,A,] | %27
[M:5/8] [E,G,]-[E,G,]- [E,G,]3 |] %28
V:3
 x6 | x6 | x6 | x2[K:treble] x2[K:bass] x2 |[M:5/8] x5 |[M:1/8] x |[M:3/4] x6 | x6 | %8
 x2[K:treble] x2[K:bass] x2 |[M:5/8] x5 |[M:1/8] x |[M:3/4] x6 | x6 | x6 |[M:5/8] x5 |[M:1/8] x | %16
[M:3/4] x6 | x6 | x6 |[M:5/8] x5 |[M:3/4] x6 | x6 | x6 | [B,,B,]6 | z2 z E,3 | %25
 [F,B,D][F,B,D] [F,B,D] B,2- [D,B,] | x2[K:treble] x2[K:bass] x2 |[M:5/8] x5 |] %28
V:4
 x6 | x6 | x6 | x6 |[M:5/8] x5 |[M:1/8] x |[M:3/4] x6 | x6 | x6 |[M:5/8] x5 |[M:1/8] x | %11
[M:3/4] x6 | x6 | x6 |[M:5/8] x5 |[M:1/8] x |[M:3/4] x6 | x6 | x6 |[M:5/8] x5 |[M:3/4] x6 | x6 | %22
 x6 | x6 | x6 | z2 z A3 | x6 |[M:5/8] x5 |] %28

